packages/foundations/assets/icons/functional/images/human/cigarette_disabled_28.svg

<svg width="28" height="28" viewBox="0 0 28 28" fill="none" xmlns="http://www.w3.org/2000/svg">
<g clip-path="url(#clip0_185_1112)">
<path fill-rule="evenodd" clip-rule="evenodd" d="M23.0887 3.68609C23.4125 3.39894 23.9283 3.44345 24.2437 3.75888C24.5591 4.0743 24.6006 4.60621 24.3165 4.91388L12.6123 16.6276H23.8129C24.3499 16.6276 24.7843 16.7205 25.1162 16.9063C25.4826 17.1023 25.7753 17.395 25.9713 17.7614C26.1445 18.0852 26.25 18.379 26.25 19.253C26.25 20.1271 26.1692 20.3737 25.9713 20.7438C25.7753 21.1102 25.4826 21.4029 25.1162 21.5989C24.7924 21.7721 24.4568 21.8556 24.011 21.8737L7.36225 21.8776L4.91129 24.3191C4.57625 24.5935 4.07171 24.5617 3.75628 24.2463C3.44086 23.9309 3.40501 23.3999 3.68349 23.0913L23.0887 3.68609ZM7.77437 16.6276L6.0235 18.3785H4.0816C3.91526 18.3831 3.74026 18.3856 3.64494 18.4862C3.54963 18.5867 3.5 18.7014 3.5 18.885V19.581C3.5 19.7214 3.5393 19.9049 3.6175 19.9918C3.6957 20.0788 3.87807 20.1207 4.07767 20.1262L4.27437 20.1276L2.83285 21.5707C2.54158 21.4047 2.21385 21.1154 2.02872 20.7438C1.84359 20.3722 1.75 20.1276 1.75 19.253C1.75 18.3785 1.8308 18.1315 2.02872 17.7614C2.22466 17.395 2.51742 17.1023 2.8838 16.9063C3.20761 16.7331 3.54322 16.6496 3.98902 16.6315L7.77437 16.6276ZM10.8614 18.3785L9.11225 20.1276H23.8129C24.052 20.1276 24.1869 20.1132 24.3165 20.0292C24.4461 19.9451 24.5 19.7936 24.5 19.581C24.5 19.3187 24.5 19.0866 24.5 18.885C24.5 18.5825 24.3523 18.4823 24.2909 18.4495C24.2114 18.407 24.1219 18.3845 23.9223 18.379L10.8614 18.3785ZM3.1951 4.64328C3.5373 4.30207 4.09132 4.30286 4.43253 4.64507C6.05894 6.27617 6.03685 8.1911 4.44508 10.0395L4.16229 10.3594C3.38512 11.2839 3.35487 12.1128 3.76901 12.9154C3.839 13.051 3.94827 13.2138 4.0968 13.4037C4.42748 13.7642 4.42748 14.3035 4.0816 14.641C3.73572 14.9785 3.18174 14.9717 2.84425 14.6258C2.662 14.439 2.42811 14.1331 2.21385 13.7179C1.4879 12.311 1.56203 10.7121 2.85265 9.19813L3.12761 8.88827C4.14129 7.71637 4.13758 6.82771 3.19331 5.88072C2.8521 5.53852 2.8529 4.9845 3.1951 4.64328Z" fill="#1A1C1F"/>
</g>
<defs>
<clipPath id="clip0_185_1112">
<rect width="28" height="28" fill="white"/>
</clipPath>
</defs>
</svg>

<svg xmlns="http://www.w3.org/2000/svg" width="28" height="28" fill="none"><g clip-path="url(#a)"><path fill="#1A1C1F" fill-rule="evenodd" d="M23.089 3.686c.324-.287.84-.243 1.155.073.315.315.357.847.073 1.155L12.612 16.628h11.2q.807 0 1.304.278c.367.196.66.489.855.855.174.324.279.618.279 1.492s-.08 1.12-.279 1.49c-.196.367-.488.66-.855.856-.324.173-.66.257-1.105.275l-16.649.004-2.45 2.441a.867.867 0 0 1-1.156-.073c-.315-.315-.351-.846-.073-1.155zM7.774 16.628l-1.75 1.75H4.082c-.167.005-.342.008-.437.108a.53.53 0 0 0-.145.399v.696c0 .14.04.324.118.41.078.088.26.13.46.135l.196.002-1.441 1.443a2.06 2.06 0 0 1-.804-.827c-.185-.372-.279-.616-.279-1.491s.08-1.122.279-1.492c.196-.366.488-.659.855-.855.324-.173.66-.256 1.105-.274zm3.087 1.75-1.749 1.75h14.7c.24 0 .375-.015.505-.099s.183-.235.183-.448v-.696c0-.303-.148-.403-.21-.436-.079-.042-.168-.065-.368-.07zM3.195 4.643a.875.875 0 0 1 1.238.002c1.626 1.631 1.604 3.546.012 5.395l-.283.32c-.777.924-.807 1.753-.393 2.555q.105.204.328.489c.33.36.33.9-.015 1.237a.875.875 0 0 1-1.238-.015 3.9 3.9 0 0 1-.63-.908c-.726-1.407-.652-3.006.639-4.52l.275-.31c1.013-1.172 1.01-2.06.065-3.007a.875.875 0 0 1 .002-1.238" clip-rule="evenodd"/></g><defs><clipPath id="a"><path fill="#fff" d="M0 0h28v28H0z"/></clipPath></defs></svg>
